!!!!SEGMENT: pl-wn--sd-xvi-o-245_anonim--kancjonal-zamoyskich-oratio-dominica-to-jest-modlitwa-panska.krn
!!!cenid: 15xx:803
!!!COM: Anonim
!!!COM-rismid: pe30004985
!!!CDT:
!!!CNT:
!!!GTL: Kancjonał Zamoyskich
!!!OTL: Oratio Dominica to jest modlitwa pańska
!!!PDT: 1558
!!!AGN:
!!!SMS-siglum: PL-Wn
!!!SMS-shelfmark: SD XVI.O.245
!!!SMS-shelfwork: G
!!!SMS-variant:
!!!SMS-altvar:
!!!NIFC-rismid: 990072050
!!!URL-scan: https://polona.pl/item/oratio-dominica-to-iesth-modlithwa-panska-podlug-ssczerego-textu-na-polska-piosnke,MTE3MjM2Nw/3/#info:metadata
!!!ONB-nifc: UWAGA: proszę zapisywać tylko teksty występujące bezpośrednio pod nutami
!!!AIN: 1 alto 1 bass 1 soprn 1 tenor
!!!key: a
**kern	**kern	**kern	**kern
*part4	*part3	*part2	*part1
*staff4	*staff3	*staff2	*staff1
*I"[BASS]	*I"[TENOR]	*I"[ALT]	*I"CANTVS.
*I'B	*I'T	*I'A	*I'S
*Ibass	*Itenor	*Ialto	*Isoprn
*ICvox	*ICvox	*ICvox	*ICvox
*clefF4	*clefC4	*clefC3	*clefC1
*k[]	*k[]	*k[]	*k[]
*a:	*a:	*a:	*a:
*M4/4	*M4/4	*M4/4	*
*met(C)	*met(C)	*met(C)	*
=1-	=1-	=1-	=1-
!!LO:TX:t=P:problem:brak partii A, T, B w źródle
1ryy	1ryy	1ryy	1a
=2-	=2-	=2-	=2-
1ryy	1ryy	1ryy	2g/
.	.	.	2cc/
=3-	=3-	=3-	=3-
1ryy	1ryy	1ryy	2b/
.	.	.	2b/
=4-	=4-	=4-	=4-
1ryy	1ryy	1ryy	2a/
.	.	.	2a/
=5-	=5-	=5-	=5-
1ryy	1ryy	1ryy	1g
=6-	=6-	=6-	=6-
*	*	*	*clefC1
*	*	*	*M4/4
*	*	*	*met(C)
1ryy	1ryy	1ryy	1g
=7-	=7-	=7-	=7-
1ryy	1ryy	1ryy	2a\
.	.	.	2g/
=8-	=8-	=8-	=8-
1ryy	1ryy	1ryy	2b\
.	.	.	2g/
=9-	=9-	=9-	=9-
1ryy	1ryy	1ryy	2a\
.	.	.	2dd\
=10-	=10-	=10-	=10-
1ryy	1ryy	1ryy	1b
=11-	=11-	=11-	=11-
1ryy	1ryy	1ryy	1g
=12-	=12-	=12-	=12-
1ryy	1ryy	1ryy	2a\
.	.	.	2g/
=13-	=13-	=13-	=13-
1ryy	1ryy	1ryy	2b\
.	.	.	2g/
=14-	=14-	=14-	=14-
1ryy	1ryy	1ryy	2a\
.	.	.	2dd\
=15-	=15-	=15-	=15-
1ryy	1ryy	1ryy	1b
=16-	=16-	=16-	=16-
1ryy	1ryy	1ryy	2cc\
.	.	.	2b\
=17-	=17-	=17-	=17-
1ryy	1ryy	1ryy	2a\
*	*	*	*custos:b
!	!	!	!LO:LB:g=original
.	.	.	2b\
=18-	=18-	=18-	=18-
1ryy	1ryy	1ryy	2e/
.	.	.	1a\
=19-	=19-	=19-	=19-
1ryy	1ryy	1ryy	.
.	.	.	2a\
=20-	=20-	=20-	=20-
!	!	!	!LO:TX:t=P:problem:nuta dopisana
1ryy	1ryy	1ryy	1g
=21-	=21-	=21-	=21-
1ryy	1ryy	1ryy	2g/
.	.	.	2a\
=22-	=22-	=22-	=22-
1ryy	1ryy	1ryy	2g/
.	.	.	2e/
=23-	=23-	=23-	=23-
1ryy	1ryy	1ryy	2d/
.	.	.	2g/
=24-	=24-	=24-	=24-
1ryy	1ryy	1ryy	1e
=25-	=25-	=25-	=25-
1ryy	1ryy	1ryy	1e
=26-	=26-	=26-	=26-
1ryy	1ryy	1ryy	2a\
.	.	.	2f/
=27-	=27-	=27-	=27-
1ryy	1ryy	1ryy	2g/
.	.	.	2a\
=28-	=28-	=28-	=28-
1ryy	1ryy	1ryy	2g/
.	.	.	1e/
=29-	=29-	=29-	=29-
1ryy	1ryy	1ryy	.
*	*	*	*custos:d
!	!	!	!LO:LB:g=original
.	.	.	2d/
=30-	=30-	=30-	=30-
1ryy	1ryy	1ryy	1e
=31-	=31-	=31-	=31-
1ryy	1ryy	1ryy	2g/
.	.	.	2f/
=32-	=32-	=32-	=32-
1ryy	1ryy	1ryy	2f/
.	.	.	2e/
=33-	=33-	=33-	=33-
1ryy	1ryy	1ryy	2e/
.	.	.	1a\
=34-	=34-	=34-	=34-
1ryy	1ryy	1ryy	.
.	.	.	2g/
=35-	=35-	=35-	=35-
1ryy	1ryy	1ryy	1a/l
==	==	==	==
*-	*-	*-	*-
!!!system-decoration: [(s1,s2,s3,s4)]
!!!RDF**kern: > = above
!!!RDF**kern: < = below
!!!RDF**kern: l = terminal long
!!!ENC: Katarzyna Serwa
!!!END: 2022-05-06
!!!ENC: Mateusz Solarz
!!!END: 2022-04-25
